X:3
T:Salmon Tails (1)
M:2/4
L:1/8
Q:200
N:Change to "Rattling Bog"  when "Horseshoes " is called.
Z:Brian Martin
K:G
((3D/E/F/)|GE DE|G2G>A|B/c/d AB/A/|GE D2|GE DE|G2 G>A|B/c/d AB/A/|G3:|!
A||:Bd dc/B/|ce e2|dB AB/A/|GE D2|Bd dc/B/|ce e>f|gf ed|ef g2:||
